svg/u1f47a.svg

<svg viewBox="0 0 128 128" xmlns="http://www.w3.org/2000/svg">
  <g>
    <path d="M9.04,75.5c0-9.6-2.91-54.6,4.71-63.46C26.61-2.92,41.97,7.58,59.06,7.58s29.33-9.15,38.27,4.17 c7.51,11.19,4.58,52.57,4.58,63.75c0,31.31-20.79,48.5-46.43,48.5S9.04,107.46,9.04,75.5z" fill="#F04E3E"/>
    <path d="M66.69,99.64c11.7,0,17.16,6.89,19.55,9.46c0.89,0.96,1.81,0.58,1.81,0.58 c0-5.66-6.77-21.25-21.36-21.25c-16.56,0-26.78,9.48-29.64,21.25C36.27,112.9,51.18,99.64,66.69,99.64z" fill="#FFF8E1"/>
    <path d="M94.64,31.44c-7.94-2.95-14.61,3.33-17.19,5.93c-3.22,3.25-10.15,8.49-12.57,1.41 c-0.72-2.12-0.07-4.54-1.15-6.5c-0.23-0.41-0.53-0.81-0.95-1.01s-0.99-0.17-1.3,0.18c-0.32,0.37-0.28,0.92-0.22,1.4 c0.32,2.49,0.26,4.47-1.26,6.61c-1.68,2.35-4.81,3.72-7.58,2.89c-2.14-0.65-3.2-2.2-4.54-3.8c-1.48-1.76-3.76-3.39-5.61-4.76 c-5.17-3.82-8.63-4.96-18.16-2.08c-5.86,1.77-8.85-1.29-8.68-6.18c0.17-4.98,1.53-10.26,3.8-14.12c1.65-2.82,5.99-6.05,9.01-7.26 C21.47,4.47,17.49,6.08,13.05,13c-6.31,9.83-4.01,54.9-4.01,64.5c0,31.97,20.79,46.5,46.43,46.5c5.82,0,11.71-0.71,18.56-3.36 c-0.89,0.02-40.84,6-49.54-17.95C21.87,95.47,21.9,87.53,21.43,80c-5.11-3.16-8.48-19.56-0.68-23.55 c3.89-1.99,8.23-2.05,12.99,2.18c6.49,5.78,12.8,4.14,17.63,2.36c2.99-1.1,5.2-3.08,6.77-3.84c2.54-1.24,4.6-0.45,5.5,0.34 c1.49,1.32,2.74,8.11,22.46,7.21c10.41-0.47,16.44-7.32,16.44-7.32C102.76,48.23,102.95,34.52,94.64,31.44z M77.13,39.48l0.98,0.49 c-0.01,0.18-0.02,0.36-0.03,0.53C77.76,40.06,77.44,39.68,77.13,39.48z" fill="#B71C1C"/>
    <path d="M27.37,41.56c-0.7-3.37,1.94-6.53,5.38-6.39c3.63,0.15,8.41,0.79,12.94,2.76 c5.59,2.44,10.08,8.69,8.3,15.27c-1.12,4.13-3.75,7.43-11.83,6.64C35.01,59.15,29.28,50.73,27.37,41.56z" fill="#FFECB3"/>
    <path d="M90.89,72.49c0.01,1.19-0.1,2.73-0.52,4.58c0,0,4.59,1.39,9.14-10.54c0.17-0.46,0.52-0.81,0.9-0.77 c0.75,0.08,1.2,1.21,1.42,2.2c1.87,8.23-0.54,17.89-5.71,22.92c-1.23,1.2-5.26,2.81-9.04,1.5c-1.87-0.65-16.22-9.03-19.94-9.47 c-2.51-0.3,0.33-3.41,1.25-4.3c2.57-2.5,9.63-0.83,14.54-3.45c2.63-1.41,4.67-2.99,5.97-4.12C89.76,70.29,90.87,71.11,90.89,72.49 z" fill="#281010"/>
    <path d="M95.22,41.56c0.7-3.37-1.94-6.53-5.38-6.39c-3.63,0.15-8.41,0.79-12.94,2.76 c-5.59,2.44-10.08,8.69-8.3,15.27c1.12,4.13,5.55,7.76,11.83,6.64C89.95,58.15,93.31,50.73,95.22,41.56z" fill="#FFECB3"/>
    <ellipse cx="42.98" cy="50.05" fill="#212121" rx="5.74" ry="6"/>
    <ellipse cx="80.35" cy="50.05" fill="#212121" rx="5.74" ry="6"/>
    <g>
      <path d="M28.58,72.49c-0.02,1.19,0.14,2.73,0.7,4.58c0,0-6.19,1.39-12.34-10.54 c-0.24-0.46-0.7-0.81-1.22-0.77c-1.02,0.08-1.61,1.21-1.92,2.2c-2.53,8.23,0.72,17.89,7.7,22.92c1.67,1.2,7.1,2.81,12.2,1.5 c2.53-0.65,21.9-9.03,26.92-9.47c3.39-0.3-0.45-3.41-1.68-4.3c-3.47-2.5-13-0.83-19.63-3.45c-3.56-1.41-6.31-2.99-8.05-4.12 C30.11,70.29,28.61,71.11,28.58,72.49z" fill="#281010"/>
      <path d="M22.47,80.74c3.29,2.13,7.41,2.95,11.27,2.24c0,0-3.02-2.33-4.56-6.32 c0.04,0.14,0.06,0.26,0.11,0.4c0,0-6.19,1.39-12.34-10.54c-0.19-0.36-0.52-0.65-0.9-0.74C15.66,72.83,19.18,78.61,22.47,80.74z" fill="#394D57"/>
      <path d="M58.95,78.61c-3.47-2.5-13-0.83-19.63-3.45c-3.56-1.41-6.31-2.99-8.05-4.12 c-0.3-0.2-0.63-0.28-0.95-0.28c2.89,1.35,5.44,8.55,13.27,8.57c3.36,0.01,6.72-0.46,10.08-0.35c2.86,0.09,5.83,0.73,8.11,2.38 C61.2,80.34,59.65,79.11,58.95,78.61z" fill="#394D57"/>
    </g>
    <path d="M101.29,56.52c-11.39,6.52-19.52,9.52-30.02,6.04c-5.51-1.83-7.54-5.03-7.54-5.03 s-7.31,4.59-7.31,9.93s2.81,8.56,6.81,10.26c4.97,2.11,19.86,5.5,39.23,1.94c14.99-2.76,27.65-12.1,20.59-23.06 C119.11,50.46,110.36,51.33,101.29,56.52z" fill="#F44336"/>
    <path d="M66.1,97.91c-13.88-0.55-25.88,10.84-26.62,10.63c-0.37-0.1-0.65-0.45-0.67-0.83 c-0.01-0.2-1.14,0.11-1.29,0.23c-1.56,1.24-1.65,2.38-1.53,2.5c0.46,0.46,1.03,1.44,4.44,0.12c0.68-0.26,14.5-8.25,26.47-7.34 c10.13,0.77,17.15,5.73,18.29,6.54c0.53,0.38,0.83,0.58,1.2,0.69c0.37,0.11,1.65,0.07,1.77-0.75 C88.22,109.3,79.28,98.43,66.1,97.91z" fill="#B31B1B"/>
    <path d="M41.22,104.48c2.03-3.43,9.77-14.08,23.99-13.87c12.15,0.18,18.74,13.15,19.89,15.38 c0.34,0.66,2.21,5.4,3.07,3.89c0.26-0.46,0.22-1.03,0.12-1.55C87.16,102.7,79.84,86.35,65,86.35c-11.98,0-21.15,5.91-27.08,17.08 c-0.9,1.69-1.91,3.87-2.15,5.77c-0.13,1.02,0.34,1.64,0.97,1.64C37.97,110.83,40.31,106.02,41.22,104.48z" fill="#CC2D2D"/>
    <path d="M57.22,112.36c0.6-2.65,3.63-5.3,8.92-5.3c4.05,0,6.59,3.78,6.59,5.79c0,1.89-1.29,1.94-2.57,1.22 c-1.37-0.77-2.55-1.54-4.43-1.54c-2.93,0-3.88,1.63-6.16,2C58.01,114.77,56.91,113.69,57.22,112.36z" fill="#FF8A66"/>
    <g>
      <path d="M41.4,36.92c2.44,2.14,5.24,3.92,8.3,5c1.85,0.65,4.13,0.93,5.59-0.38 c2.21-1.98,0.94-8.5,0.34-11.05c-0.77-3.3-2.21-6.46-4.23-9.18c-0.53-0.71-1.64-0.52-1.92,0.32l-1.55,4.73 c-3.85-8.3-8.17-11.79-10.59-13.18c-0.77-0.44-1.69,0.22-1.51,1.08c0.26,1.27,0.58,2.88,0.74,3.93c-4.3-3.33-9.73-5.2-15.18-5.21 C22.04,12.99,24.82,22.4,41.4,36.92z" fill="#281010"/>
      <path d="M38.63,24.84l-0.84-5.79c0,0,4.6,2.58,10.93,12.7l0.93-5.72c3.77,3.63,6.16,10.67,5.49,15.62 c0.01,0,0,0,0.01,0.01c2.4-1.84,1.09-8.56,0.48-11.17c-0.77-3.3-2.21-6.44-4.22-9.16c-0.53-0.72-1.66-0.52-1.94,0.33l-1.54,4.71 c-3.85-8.29-8.15-11.77-10.58-13.17c-0.77-0.44-1.7,0.22-1.52,1.09c0.26,1.27,0.58,2.87,0.74,3.92c-4.3-3.33-9.73-5.2-15.18-5.21 C21.39,12.99,28.2,13.96,38.63,24.84z" fill="#394D57"/>
    </g>
    <g>
      <path d="M80.47,37.21c-2.09,2.03-4.49,3.71-7.11,4.74c-1.59,0.62-3.54,0.88-4.79-0.36 c-1.89-1.88-0.8-8.05-0.29-10.47c0.66-3.13,1.89-6.11,3.63-8.7c0.45-0.67,1.4-0.49,1.64,0.31l1.33,4.48 c3.3-7.86,6.99-11.16,9.07-12.48c0.66-0.42,1.45,0.21,1.3,1.03c-0.22,1.2-0.5,2.73-0.63,3.73c3.69-3.16,8.33-4.92,13-4.93 C97.05,14.54,94.67,23.46,80.47,37.21z" fill="#281010"/>
      <path d="M82.85,25.77l0.72-5.49c0,0-3.94,2.45-9.36,12.03l-0.8-5.42c-3.23,3.44-5.28,10.11-4.7,14.79 c-0.01,0,0,0-0.01,0.01c-2.06-1.74-0.93-8.11-0.41-10.58c0.66-3.12,1.89-6.1,3.61-8.68c0.45-0.68,1.42-0.49,1.66,0.31l1.32,4.46 c3.29-7.85,6.98-11.15,9.06-12.48c0.66-0.42,1.46,0.21,1.3,1.03c-0.22,1.2-0.49,2.72-0.63,3.71c3.69-3.16,8.33-4.92,13-4.93 C97.61,14.54,91.77,15.47,82.85,25.77z" fill="#394D57"/>
    </g>
    <path d="M106.13,57.49c5.1-2.88,8.7-2.1,9.54-0.45c1.42,2.79-1.8,5.44-5.28,6.31 c-4.77,1.19-10.48,2.55-11.11,0.37C98.64,61.54,102.72,59.41,106.13,57.49z" fill="#FF8A66"/>
    <path d="M125.07,62.76c0-3.04-2.01-6.16-2.01-6.16s0.78,4.12-2.57,9.15c-2.8,4.2-9.49,8.28-18.75,9.98 c-5.37,0.99-10.78,1.49-16.08,1.49c-10.58,0-18.09-1.99-20.86-3.17c-2.39-1.02-5.47-2.21-8.35-6.05c0.18,5.02,2.93,8.08,6.79,9.73 c3.4,1.45,11.46,3.49,22.43,3.49c5.04,0,10.7-0.43,16.81-1.56c12.05-2.22,22.6-8.69,22.6-16.85 C125.07,62.8,125.07,62.78,125.07,62.76z" fill="#B71C1C"/>
  </g>
</svg>

<svg viewBox="0 0 128 128" xmlns="http://www.w3.org/2000/svg">
  <defs/>
  <path d="M9.04,75.5 C9.04,65.9 6.13,20.9 13.75,12.04 C26.61,-2.92 41.97,7.58 59.06,7.58 C76.15,7.58 88.39,-1.57 97.33,11.75 C104.84,22.94 101.91,64.32 101.91,75.5 C101.91,106.81 81.12,124 55.48,124 C29.84,124 9.04,107.46 9.04,75.5 Z" fill="#F04E3E"/>
  <path d="M66.69,99.64 C78.39,99.64 83.85,106.53 86.24,109.1 C87.13,110.06 88.05,109.68 88.05,109.68 C88.05,104.02 81.28,88.43 66.69,88.43 C50.13,88.43 39.91,97.91 37.05,109.68 C36.27,112.9 51.18,99.64 66.69,99.64 Z" fill="#FFF8E1"/>
  <path d="M94.64,31.44 C86.7,28.49 80.03,34.77 77.45,37.37 C74.23,40.62 67.3,45.86 64.88,38.78 C64.16,36.66 64.81,34.24 63.73,32.28 C63.5,31.87 63.2,31.47 62.78,31.27 C62.36,31.07 61.79,31.1 61.48,31.45 C61.16,31.82 61.2,32.37 61.26,32.85 C61.58,35.34 61.52,37.32 60,39.46 C58.32,41.81 55.19,43.18 52.42,42.35 C50.28,41.7 49.22,40.15 47.88,38.55 C46.4,36.79 44.12,35.16 42.27,33.79 C37.1,29.97 33.64,28.83 24.11,31.71 C18.25,33.48 15.26,30.42 15.43,25.53 C15.6,20.55 16.96,15.27 19.23,11.41 C20.88,8.59 25.22,5.36 28.24,4.15 C21.47,4.47 17.49,6.08 13.05,13 C6.74,22.83 9.04,67.9 9.04,77.5 C9.04,109.47 29.83,124 55.47,124 C61.29,124 67.18,123.29 74.03,120.64 C73.14,120.66 33.19,126.64 24.49,102.69 C21.87,95.47 21.9,87.53 21.43,80 C16.32,76.84 12.95,60.44 20.75,56.45 C24.64,54.46 28.98,54.4 33.74,58.63 C40.23,64.41 46.54,62.77 51.37,60.99 C54.36,59.89 56.57,57.91 58.14,57.15 C60.68,55.91 62.74,56.7 63.64,57.49 C65.13,58.81 66.38,65.6 86.1,64.7 C96.51,64.23 102.54,57.38 102.54,57.38 C102.76,48.23 102.95,34.52 94.64,31.44 Z M77.13,39.48 L78.11,39.97 C78.1,40.15 78.09,40.33 78.08,40.5 C77.76,40.06 77.44,39.68 77.13,39.48 Z" fill="#B71C1C"/>
  <path d="M27.37,41.56 C26.67,38.19 29.31,35.03 32.75,35.17 C36.38,35.32 41.16,35.96 45.69,37.93 C51.28,40.37 55.77,46.62 53.99,53.2 C52.87,57.33 50.24,60.63 42.16,59.84 C35.01,59.15 29.28,50.73 27.37,41.56 Z" fill="#FFECB3"/>
  <path d="M90.89,72.49 C90.9,73.68 90.79,75.22 90.37,77.07 C90.37,77.07 94.96,78.46 99.51,66.53 C99.68,66.07 100.03,65.72 100.41,65.76 C101.16,65.84 101.61,66.97 101.83,67.96 C103.7,76.19 101.29,85.85 96.12,90.88 C94.89,92.08 90.86,93.69 87.08,92.38 C85.21,91.73 70.86,83.35 67.14,82.91 C64.63,82.61 67.47,79.5 68.39,78.61 C70.96,76.11 78.02,77.78 82.93,75.16 C85.56,73.75 87.6,72.17 88.9,71.04 C89.76,70.29 90.87,71.11 90.89,72.49 Z" fill="#281010"/>
  <path d="M95.22,41.56 C95.92,38.19 93.28,35.03 89.84,35.17 C86.21,35.32 81.43,35.96 76.9,37.93 C71.31,40.37 66.82,46.62 68.6,53.2 C69.72,57.33 74.15,60.96 80.43,59.84 C89.95,58.15 93.31,50.73 95.22,41.56 Z" fill="#FFECB3"/>
  <path d="M48.72,50.05 A5.74 6 0 1 1 37.24,50.05 A5.74 6 0 1 1 48.72,50.05 Z" fill="#212121"/>
  <path d="M86.09,50.05 A5.74 6 0 1 1 74.61,50.05 A5.74 6 0 1 1 86.09,50.05 Z" fill="#212121"/>
  <path d="M28.58,72.49 C28.56,73.68 28.72,75.22 29.28,77.07 C29.28,77.07 23.09,78.46 16.94,66.53 C16.7,66.07 16.24,65.72 15.72,65.76 C14.7,65.84 14.11,66.97 13.8,67.96 C11.27,76.19 14.52,85.85 21.5,90.88 C23.17,92.08 28.6,93.69 33.7,92.38 C36.23,91.73 55.6,83.35 60.62,82.91 C64.01,82.61 60.17,79.5 58.94,78.61 C55.47,76.11 45.94,77.78 39.31,75.16 C35.75,73.75 33,72.17 31.26,71.04 C30.11,70.29 28.61,71.11 28.58,72.49 Z" fill="#281010"/>
  <path d="M22.47,80.74 C25.76,82.87 29.88,83.69 33.74,82.98 C33.74,82.98 30.72,80.65 29.18,76.66 C29.22,76.8 29.24,76.92 29.29,77.06 C29.29,77.06 23.1,78.45 16.95,66.52 C16.76,66.16 16.43,65.87 16.05,65.78 C15.66,72.83 19.18,78.61 22.47,80.74 Z" fill="#394D57"/>
  <path d="M58.95,78.61 C55.48,76.11 45.95,77.78 39.32,75.16 C35.76,73.75 33.01,72.17 31.27,71.04 C30.97,70.84 30.64,70.76 30.32,70.76 C33.21,72.11 35.76,79.31 43.59,79.33 C46.95,79.34 50.31,78.87 53.67,78.98 C56.53,79.07 59.5,79.71 61.78,81.36 C61.2,80.34 59.65,79.11 58.95,78.61 Z" fill="#394D57"/>
  <path d="M101.29,56.52 C89.9,63.04 81.77,66.04 71.27,62.56 C65.76,60.73 63.73,57.53 63.73,57.53 C63.73,57.53 56.42,62.12 56.42,67.46 C56.42,72.8 59.23,76.02 63.23,77.72 C68.2,79.83 83.09,83.22 102.46,79.66 C117.45,76.9 130.11,67.56 123.05,56.6 C119.11,50.46 110.36,51.33 101.29,56.52 Z" fill="#F44336"/>
  <path d="M66.1,97.91 C52.22,97.36 40.22,108.75 39.48,108.54 C39.11,108.44 38.83,108.09 38.81,107.71 C38.8,107.51 37.67,107.82 37.52,107.94 C35.96,109.18 35.87,110.32 35.99,110.44 C36.45,110.9 37.02,111.88 40.43,110.56 C41.11,110.3 54.93,102.31 66.9,103.22 C77.03,103.99 84.05,108.95 85.19,109.76 C85.72,110.14 86.02,110.34 86.39,110.45 C86.76,110.56 88.04,110.52 88.16,109.7 C88.22,109.3 79.28,98.43 66.1,97.91 Z" fill="#B31B1B"/>
  <path d="M41.22,104.48 C43.25,101.05 50.99,90.4 65.21,90.61 C77.36,90.79 83.95,103.76 85.1,105.99 C85.44,106.65 87.31,111.39 88.17,109.88 C88.43,109.42 88.39,108.85 88.29,108.33 C87.16,102.7 79.84,86.35 65,86.35 C53.02,86.35 43.85,92.26 37.92,103.43 C37.02,105.12 36.01,107.3 35.77,109.2 C35.64,110.22 36.11,110.84 36.74,110.84 C37.97,110.83 40.31,106.02 41.22,104.48 Z" fill="#CC2D2D"/>
  <path d="M57.22,112.36 C57.82,109.71 60.85,107.06 66.14,107.06 C70.19,107.06 72.73,110.84 72.73,112.85 C72.73,114.74 71.44,114.79 70.16,114.07 C68.79,113.3 67.61,112.53 65.73,112.53 C62.8,112.53 61.85,114.16 59.57,114.53 C58.01,114.77 56.91,113.69 57.22,112.36 Z" fill="#FF8A66"/>
  <path d="M41.4,36.92 C43.84,39.06 46.64,40.84 49.7,41.92 C51.55,42.57 53.83,42.85 55.29,41.54 C57.5,39.56 56.23,33.04 55.63,30.49 C54.86,27.19 53.42,24.03 51.4,21.31 C50.87,20.6 49.76,20.79 49.48,21.63 L47.93,26.36 C44.08,18.06 39.76,14.57 37.34,13.18 C36.57,12.74 35.65,13.4 35.83,14.26 C36.09,15.53 36.41,17.14 36.57,18.19 C32.27,14.86 26.84,12.99 21.39,12.98 C22.04,12.99 24.82,22.4 41.4,36.92 Z" fill="#281010"/>
  <path d="M38.63,24.84 L37.79,19.05 C37.79,19.05 42.39,21.63 48.72,31.75 L49.65,26.03 C53.42,29.66 55.81,36.7 55.14,41.65 C55.15,41.65 55.14,41.65 55.15,41.66 C57.55,39.82 56.24,33.1 55.63,30.49 C54.86,27.19 53.42,24.05 51.41,21.33 C50.88,20.61 49.75,20.81 49.47,21.66 L47.93,26.37 C44.08,18.08 39.78,14.6 37.35,13.2 C36.58,12.76 35.65,13.42 35.83,14.29 C36.09,15.56 36.41,17.16 36.57,18.21 C32.27,14.88 26.84,13.01 21.39,13 C21.39,12.99 28.2,13.96 38.63,24.84 Z" fill="#394D57"/>
  <path d="M80.47,37.21 C78.38,39.24 75.98,40.92 73.36,41.95 C71.77,42.57 69.82,42.83 68.57,41.59 C66.68,39.71 67.77,33.54 68.28,31.12 C68.94,27.99 70.17,25.01 71.91,22.42 C72.36,21.75 73.31,21.93 73.55,22.73 L74.88,27.21 C78.18,19.35 81.87,16.05 83.95,14.73 C84.61,14.31 85.4,14.94 85.25,15.76 C85.03,16.96 84.75,18.49 84.62,19.49 C88.31,16.33 92.95,14.57 97.62,14.56 C97.05,14.54 94.67,23.46 80.47,37.21 Z" fill="#281010"/>
  <path d="M82.85,25.77 L83.57,20.28 C83.57,20.28 79.63,22.73 74.21,32.31 L73.41,26.89 C70.18,30.33 68.13,37 68.71,41.68 C68.7,41.68 68.71,41.68 68.7,41.69 C66.64,39.95 67.77,33.58 68.29,31.11 C68.95,27.99 70.18,25.01 71.9,22.43 C72.35,21.75 73.32,21.94 73.56,22.74 L74.88,27.2 C78.17,19.35 81.86,16.05 83.94,14.72 C84.6,14.3 85.4,14.93 85.24,15.75 C85.02,16.95 84.75,18.47 84.61,19.46 C88.3,16.3 92.94,14.54 97.61,14.53 C97.61,14.54 91.77,15.47 82.85,25.77 Z" fill="#394D57"/>
  <path d="M106.13,57.49 C111.23,54.61 114.83,55.39 115.67,57.04 C117.09,59.83 113.87,62.48 110.39,63.35 C105.62,64.54 99.91,65.9 99.28,63.72 C98.64,61.54 102.72,59.41 106.13,57.49 Z" fill="#FF8A66"/>
  <path d="M125.07,62.76 C125.07,59.72 123.06,56.6 123.06,56.6 C123.06,56.6 123.84,60.72 120.49,65.75 C117.69,69.95 111,74.03 101.74,75.73 C96.37,76.72 90.96,77.22 85.66,77.22 C75.08,77.22 67.57,75.23 64.8,74.05 C62.41,73.03 59.33,71.84 56.45,68 C56.63,73.02 59.38,76.08 63.24,77.73 C66.64,79.18 74.7,81.22 85.67,81.22 C90.71,81.22 96.37,80.79 102.48,79.66 C114.53,77.44 125.08,70.97 125.08,62.81 C125.07,62.8 125.07,62.78 125.07,62.76 Z" fill="#B71C1C"/>
</svg>
